src/assets/images/svg/line-home.svg

<svg width="24" height="24" viewBox="0 0 24 24" fill="none" xmlns="http://www.w3.org/2000/svg">
<path fill-rule="evenodd" clip-rule="evenodd" d="M17.6572 18.3597V10.563C17.6572 10.4129 17.5916 10.2703 17.4776 10.1725L12.3347 5.76439C12.1421 5.5993 11.858 5.5993 11.6654 5.76439L6.5225 10.1725C6.40851 10.2703 6.34291 10.4129 6.34291 10.563V18.3597H8.40005V15.274C8.40005 13.2858 10.0118 11.674 12 11.674C13.9883 11.674 15.6 13.2858 15.6 15.274V18.3597H17.6572ZM5.51842 9.00112C5.06246 9.39194 4.80005 9.96249 4.80005 10.563V18.874C4.80005 19.4421 5.26056 19.9026 5.82862 19.9026H9.72724C9.84635 19.9026 9.94291 19.806 9.94291 19.6869V15.274C9.94291 14.1379 10.8639 13.2169 12 13.2169C13.1362 13.2169 14.0572 14.1379 14.0572 15.274V19.6869C14.0572 19.806 14.1538 19.9026 14.2729 19.9026H18.1715C18.7395 19.9026 19.2 19.4421 19.2 18.874V10.563C19.2 9.96249 18.9376 9.39194 18.4817 9.00112L13.3388 4.59296C12.5684 3.93264 11.4317 3.93264 10.6613 4.59296L5.51842 9.00112Z" fill="black"/>
</svg>

<?xml version="1.0" encoding="utf-8"?>
<!-- Generator: Adobe Illustrator 24.0.2, SVG Export Plug-In . SVG Version: 6.00 Build 0)  -->
<svg version="1.1" id="Layer_1" xmlns="http://www.w3.org/2000/svg" xmlns:xlink="http://www.w3.org/1999/xlink" x="0px" y="0px"
	 viewBox="0 0 24 24" style="enable-background:new 0 0 24 24;" xml:space="preserve">
<style type="text/css">
	.st0{fill-rule:evenodd;clip-rule:evenodd;}
</style>
<path class="st0" d="M17.7,18.4v-7.8c0-0.2-0.1-0.3-0.2-0.4l-5.1-4.4c-0.2-0.2-0.5-0.2-0.7,0l-5.1,4.4c-0.1,0.1-0.2,0.2-0.2,0.4v7.8
	h2.1v-3.1c0-2,1.6-3.6,3.6-3.6c2,0,3.6,1.6,3.6,3.6v3.1H17.7z M5.5,9c-0.5,0.4-0.7,1-0.7,1.6v8.3c0,0.6,0.5,1,1,1h3.9
	c0.1,0,0.2-0.1,0.2-0.2v-4.4c0-1.1,0.9-2.1,2.1-2.1c1.1,0,2.1,0.9,2.1,2.1v4.4c0,0.1,0.1,0.2,0.2,0.2h3.9c0.6,0,1-0.5,1-1v-8.3
	c0-0.6-0.3-1.2-0.7-1.6l-5.1-4.4c-0.8-0.7-1.9-0.7-2.7,0L5.5,9z"/>
</svg>
